!!!!SEGMENT: 008-1b-W-003-violoncello.krn
!!!COM: Chopin, Fryderyk
!!!OTL: Trio
!!!OPS: Op. 8
!!!PTL: First Grand Trio for Pianoforte, Violin et Violoncello. Concertant.
!!!PPR: Wessel
!!!NIFC-rismID: PL-Wbfc F.7151 a, b.
!!!NIFC-shelfmark: PL-Wbfc F.7151 a, b.
!!!OMD: Sostenuto.
!!!OMD: [quarter] = 63.
!!!system-decoration: s1,s2{(s3,s4)}
**kern	**dynam
*part2	*part2
*I"ADAGIO.	*
*2\right	*
*staff2	*
*clefF4	*
*k[b-e-a-]	*
*M3/4	*
=1	=1
!LO:TX:B:a:t=1	!
2.rF	.
=2	=2
!	!LO:DY:rj
!	!LO:HP:a
4.c-X	f >
!LO:TX:t=P:oznaczenie sostenuto w źródle pod drugim taktem:problem	!
8c-	.
!LO:TX:a:t=P:note-head-side tuplet number:problem	!
(>12c-L	.
12G-X	.
12A-J)	]
=3	=3
(>2.An	<[
=4	=4
4.B-)	>]
8r	.
4r	.
=5	=5
!	!LO:DY:rj
4E-	p
2F^<	.
=6	=6
4G	.
8A-^<	.
8r	.
8r	.
(>8A-	.
=7	=7
4G	.
4F	.
4E-)	.
=8	=8
2.D	.
=9	=9
(>4E-	.
4C\	.
4D	.
=10	=10
4E-	.
4G^<	.
4F	.
!!LO:LB:g=original
=11	=11
4B-)	.
8r	.
8BB-^<L	.
8BBn^<	.
8C^<J	.
=12	=12
4.D/	.
16r	.
(<16E-KL	.
8AA-	.
8BB-J	.
=13	=13
8EE-`<)	.
8r	.
4r	.
4r	.
=14	=14
4EE-	.
[<4AA-^<	.
(<24AA-LL]	.
24BB-	.
24AA-	.
24GG	.
24AA-	.
24BB-JJ)	.
=15	=15
8C	.
8r	.
4F	.
4E-	.
=16	=16
!LO:TX:t=P:diminuendolike accent:problem	!
2D^</	.
4D/	.
=17	=17
(<4E-/	.
4D/	.
4D-X/	.
=18	=18
4C/	.
4BB-/	.
4AA-/	.
=19	=19
2AA-)	.
4BB-	.
=20	=20
(<4BB-	.
8EE-)	.
!LO:TX:iB:b:t=espress.	!
8r	.
(>4G	.
!!LO:LB:g=original
=21	=21
8.BBnL)	.
16DJk	.
(>20FLL	<
20G	.
20F	.
20En	.
20FJJ)	[
8.B-XL	>
16A-XJk	]
=22	=22
(>4A-	>
4G)	]
8.BnL	<
(>16cJk	[
=23	=23
8.dL	>
16BnJk)	]
(>16GLL	.
16A-	.
16B-X	.
16A-JJ)	.
(>8.GL	>
16FJk)	]
=24	=24
(>4F	>
4En)	]
(>4D-X	>
=25	=25
8C)/	]
8r	.
(>4en	<
4f	[
=26	=26
8c)	.
8r	.
4r	.
!	!LO:DY:rj
(>12cL	p
12.G	.
24A-Jk)	.
=27	=27
4.B-	.
8r	.
8r	.
16r	.
16C	.
=28	=28
[<2.D-X/	.
!!LO:LB:g=original
=29	=29
4D-X]/	.
2C^<	.
=30	=30
4E-/	.
2D^</	.
=31	=31
2.E-^<	.
=32	=32
!	!LO:DY:a
2.D	pp
=33	=33
!	!LO:HP:a
4E-	<[
2F^>]	.
=34	=34
(>4G	.
8A-)	.
8r	.
8r	.
(>8A-	.
=35	=35
4G	>
4F	.
4E-	]
=36	=36
4D)	.
4r	.
(>4D	.
=37	=37
4E-	>
4D	.
4D-X	.
=38	=38
4C	.
4BB-	.
4AA-	]
=39	=39
4AA-	<
4C	[>
4BB-	]
=40	=40
4BBn	>
8C)	]
8r	.
4r	.
=41	=41
(>4F	>
8E-)	]
8r	.
4r	.
!!LO:LB:g=original
=42	=42
!	!LO:DY:rj
(<4AAn^<	f
8BB-`<)	.
16r	.
16d-	.
(>12d-L	>
12An	.
12B-J)	]
=43	=43
[>4f-X	.
(>12f-^<L]	>
12e-^<	.
12d-X^<J)	.
(>12c-XL	.
12B-	.
12A-J)	]
=44	=44
2.F-X^<	.
=45	=45
4.E-	.
8E-	.
(<12E-L	.
12.AAn	.
24BB-Jk)	.
=46	=46
(<2.D-X/	<[
=47	=47
4C)	.
8r	.
8C	.
(<12CL	.
12FF	.
12GG-XJ)	.
=48	=48
(<2.C-X	>]
=49	=49
4BB-)	.
(>4B-	<
4c-X	.
=50	=50
4.B-)	[
8B-	.
(>12B-L	.
12F	.
12G-XJ)	.
=51	=51
(>4A-	<
4c-X	[>
4B-	]
!!LO:LB:g=original
=52	=52
4A-)	.
(>2c-X^<	.
=53	=53
4B-)	.
(>2F^<	.
=54	=54
4G-X)	.
2D^<	.
=55	=55
!LO:TX:t=P:diminuendolike accent:problem	!
(<8.E-^<L/	<
16D-XJk)	.
(<2C-X	<[
=56	=56
4BB-)	.
!LO:TX:a:Bi:t=Dolce.	!
!	!LO:DY:rj
8DL	p
8FJ	.
[>4B-	<
=57	=57
4B-]	[
8AnL	>
8G	]
8A	.
(>8e-J	.
=58	=58
4d)	.
(>20fLL	.
20g	.
20f	.
20en	.
20fJJ	.
*clefG2	*
8ccL)/	.
[<8b-J	.
=59	=59
8b-L]	.
(<8anJ	.
8aL	.
8g	.
8f	.
8e-J)	.
=60	=60
!	!LO:DY:rj
[<2.d	p
=61	=61
4d]	.
4r	.
4r	.
=62	=62
!LO:TX:t=P:znak pionowy w takcie:problem	!
2.r	.
*clefF4	*
=63	=63
2.r	.
=64	=64
2.r	.
=65	=65
2.r	.
!!LO:LB:g=original
=66	=66
4r	.
(<4AA'<	.
4AA'<	.
=67	=67
4.AA)	.
8r	.
4r	.
=68	=68
4.En	.
8E	.
(>12EL	.
12.An^<	.
24GJk)	.
=69	=69
4.F	.
!LO:TX:b:Bi:t=espress. e ritard.	!
8r	.
4r	.
=70	=70
!LO:TX:t=P:diminuendolike accent:problem	!
4.F^<	.
8En	.
!LO:TX:t=P:diminuendolike accent:problem	!
(>12F^<L	.
12.c	.
24B-Jk)	.
=71	=71
!LO:TX:b:B:i:t=A tempo.	!
2B-	<[
!LO:TX:t=P:diminuendolike accent:problem	!
(>12c-X^<L	.
12B-	.
24rF	.
24dJk)	.
=72	=72
8e-	.
8r	.
!	!LO:DY:rj
!LO:TX:a:Bi:t=appassionato.	!
4AA-X^<	f
(<24AA-LL	.
24BB-	.
24AA-	.
24GG	.
24AA-	.
24BB-JJ)	.
=73	=73
(<4BBn	.
8C)	.
8r	.
4r	.
!!LO:LB:g=original
=74	=74
!LO:TX:B:a:t=1	!
2.rF	.
=75	=75
!LO:TX:b:Bi:t=Dolce.	!
[>2.B-	.
=76	=76
2B-]	.
!LO:TX:t=P:diminuendolike accent:problem	!
8A-^<L	.
8GJ	.
=77	=77
8GL	.
16A-L	.
(>16GJJ	.
8F#XL	<
8G	.
8c	.
8B-J	[
=78	=78
4An	>
4A-X	.
4F	]
=79	=79
!	!LO:DY:rj
4E-)	p
(>2A-^<	.
=80	=80
4G)	.
(>2A-	.
=81	=81
8G)	pp
8r	.
!LO:TX:a:Bi:t=Rall.	!
8EE-	.
8r	.
8EE-	.
8r	.
=82	=82
4EE-;>	.
4r	.
4r	.
==	==
*-	*-
!!title: @{OTL}; @{OPS} @{ONM} publisher: @{PPR}
!!!RDF**kern: > = above
!!!RDF**kern: < = below
!!!RDF**dynam: > = "Dim.", fontstyle="bold-italic"
!!!RDF**dynam: < = "Cres.", fontstyle="bold-italic"
!!!RDF**kern: N = linked
!!!RDF**kern: i = editorial accidental
!!!ENC: Wojciech Jakubiak-Danek
!!!END: 2019-11-12
!!!EED:
!!!EST: 
